X: 21432
T: Laddie lay near me
%R: waltz
B: James Oswald "The Caledonian Pocket Companion" v.2 p.143 #2
Z: 2018 John Chambers <jc:trillian.mit.edu>
N: The is a thick double bar with no dots at the end of bar 8; how this effects the repeats is a mystery.
M: 3/4
L: 1/8
K: Gm
"_Slow"\
d2 g2 ^f2 | g3 a b2 | d2 g2 ^f2 | g4 (g/a/)b | Tf2 d2 B2 | {cd}e2 (dc) d2 | {c}B2 G2 F2 | {F2}G4 G2 |]
B4 B2 | c4 (Bc) | d2 g2 ^f2 | g4 bg | {g}f2 (dc) B2 | {cd}e2 (dc) d2 | {c}B2 G2 F2 | {F2}G4 G2 :: b>a g2 ^f2 |
g4 (=f<d) | b>a g2 ^f2 | g3 a (b/a/)g | (fb)(fd)(cB) | (cd)(ba)(gf) | d3c (B/G/)F | {F2}G4 G2 ::
B4 (d/c/)B | c3 d B>c | d2(ba)(g^f) | g3 a bc' | (d'c')(bg) (f/d/)B | {cd}e2 (dc) d2 | g2 B2 TA2 | G4 G2 :|
